X:69
T:Morgan's Rattler
M:6/8
L:1/8
K:G
dcB ABc|BAB G2e|dcB ABc|e2d efg|dcB ABc|BAB G2d|gfg afd|e2d efg::
G2g gfg|A2a a^ga|G2g gfg|e2d efg|G2g gfg|A2a a^ga|bag agf|[1 e2d efg:|[2 e2d e2z|]
